X:1
T:Title
%%score { ( 1 4 ) | ( 2 3 ) }
L:1/8
M:4/4
K:Ab
V:1 treble nm="Grand Piano"
V:4 treble 
V:2 bass 
V:3 bass 
V:1
 z4 z2[Q:1/4=110] [CE][CA] | [Ec]2 [Ec]2 [Ec]2 [Ec]2 | [Fd]4 c4 | BBBB c2 B2 | A4 z2 [CE][CA] | %5
 [Ec]2 [Ec]2 [Ec]2 [Ec]2 | [Fd]4 c4 | BBBB c2 B2 | [CA]6 z2 | [DF]2 [FA]2 [Fd]2 [DF]2 | %10
 [CE]2 [CA]2 [Ec]4 | c2 B2 G2 E2 | [CB]2 [CA]2 [CE]4 | [DF]2 [FA]2 [Fd]2 [DF]2 | %14
 [CE]2 [CA]2 [Ec]2 [Ec][Ec] | c2 B2 G2 E2 |[M:3/4] [CA]6 |] %17
V:2
 z4 z2 [A,,A,][A,,A,] | [A,,A,]2 [A,,A,]2 [A,,A,]2 [A,,A,]2 | z4 E4 | %3
 [E,G,D][E,G,D][E,G,D][E,G,D] [E,G,E]2 [E,G,D]2 | z4 E2 [A,,A,][A,,A,] | %5
 [A,,A,]2 [A,,A,]2 [A,,A,]2 [A,,A,]2 | z4 E4 | [E,G,D][E,G,D][E,G,D][E,G,D] [E,G,E]2 [E,G,D]2 | %8
 [A,,A,]6 z2 | [D,A,]2 [D,A,]2 [D,A,]2 [D,A,]2 | [A,,A,]2 [A,,A,]2 [A,,A,]4 | %11
 [E,G,D]2 [E,G,D]2 [E,B,D]2 [E,G,D]2 | [A,,A,]2 [A,,A,]2 [A,,A,]4 | %13
 [D,A,]2 [D,A,]2 [D,A,]2 [D,A,]2 | [A,,A,]2 [A,,A,]2 [A,,A,]2 [A,,A,][A,,A,] | %15
 [E,G,D]2 [E,G,D]2 [E,B,D]2 [E,G,D]2 |[M:3/4] [A,,A,]6 |] %17
V:3
 x8 | x8 | [A,,A,]8 | x8 | A,,6 z2 | x8 | [A,,A,]8 | x8 | x8 | x8 | x8 | x8 | x8 | x8 | x8 | x8 | %16
[M:3/4] x6 |] %17
V:4
 x8 | x8 | x8 | x8 | [A,C]6 z2 | x8 | x8 | x8 | x8 | x8 | x8 | x8 | x8 | x8 | x8 | x8 | %16
[M:3/4] x6 |] %17

